X:1
T:Jigg
T:Jigg
T:Lesson in A, Movement 3
T:Jeremiah Clarke (1669-1707)
T:Public Domain (PianoXML typeset)
C:Jeremiah Clarke (1669-1707)
Z:Public Domain (PianoXML typeset)
%%score { 1 | 2 }
L:1/8
Q:1/4=120
M:6/8
K:A
V:1 treble nm="Piano" snm="Pno."
V:2 bass 
V:1
"^Allegro"!f! A2 A e2 e | cBA (!5!B/A/G/F/E) | !3!A!1!Bc Bcd | cfc ^d/e/d/c/B | !3!e2 !1!e b2 b | %5
 gfe (!2!f/e/!3!^d/c/B) | !2!efg !2!fga | g(a/g/f/e/ !3!f)B!2!f | g(a/g/f/e/ !3!f)Be | %9
 f(!4!g/!2!f/!3!g/f/ e3) ||!p! !5!B2 B EFG | FGA GFE | !2!A3 B3 | !5!c2 c !1!FGA | GBc BAG | %15
!mf! d2 d !2!G!1!AB | ABc Bcd |!f! e2 e Bcd | !2!cfe{^de} dBd | e"_dim."B!4!=d cAc | BF!5!B GEG | %21
!p! (A/G/F)E !2!^DB,D | !tenuto!!5
1![EB]3 !tenuto!!3-2!c3 | !4!e/^d/e/d/c/d/ e3 | %24
 !tenuto!!1!B3 !tenuto!!4!c3 |{GFG} !tenuto!F3 !tenuto!E3 |!p! !3!AEA Be!3!B |"_cresc." cAc BEe | %28
 !2!cA!4!e fdA |"_dim." !2!FDB GE!2!G |!mf! !tenuto![Ae]3 !tenuto!f3 | %31
 (!4!a/g/a/g/f/g/ !tenuto!a3) | !tenuto!e3 !tenuto!f3 |{BA} !tenuto!B3 !tenuto!A3 | %34
!f! !tenuto!e3 !tenuto!f3 | (a/g/a/g/f/g/ !tenuto!a3) | !tenuto!e3 !tenuto!f3 | %37
{cBc} !tenuto!B3 !tenuto!!fermata!A3 |] %38
V:2
 z6 | A,,2 A,, E,2 E, | !3!C,!1!B,,A,, (B,,/A,,/G,,/F,,/E,,) | A,,3 (B,,2 B,) | %4
 (!2!G,/A,/G,/F,/!1!E,) (!2!^D,/E,/D,/C,/B,,) | !1!E,2 !4!E, B,2 B, | %6
 !2!G,F,E, (F,/E,/^D,/C,/B,,) | E,3- E,^D,B,, | E,3 !2!B,,2 G,, | A,, !1!B,,2 E,,3 || z6 | %11
 B,2 B, E,F,G, | F,G,A, G,F,E, |!mp! A,3 D2 D | !4!^E,F,G, F,2 F, | D,=E,F, E,F,G, | %16
 F,G,A, !3!E,2 !1!E, | C,D,E, !4!G,,A,,B,, | A,,2 A,, B,,B,A, | G,E,G, A,A,,A, | G,E,G, A,A,,A, | %21
 C,A,,C, B,,2 B, | G,E,G, A,A,,A, | B,B,,B, CC,C | G,G,,G, A,A,,A, | B,B,,B, E,E,,E, | %26
 C,2 A,, E,2 E,, | A,2 A,, E,2 E,, | A,,2 A,, D,2 C, | D,2 B,, E,2 E, | C,A,,C, D,D,,D, | %31
 E,E,,E, F,F,,F, | C,A,,C, D,D,,D, | E,E,,E, A,,A,,,A,, | !2!C,!4!A,,C, D,D,,D, | %35
 !2!E,E,,!1!E, !2!F,F,,!1!F, | C,A,,C, D,D,,D, | E,E,,E, A,,A,,,!fermata!A,, |] %38

